src/img/icon-7.svg

<svg width="47" height="47" viewBox="0 0 47 47" fill="none" xmlns="http://www.w3.org/2000/svg">
<path d="M10 33C7.64 33 6 31.08 6 28.71V27.28C6 24.91 7.64 22.99 10 22.99C12.36 22.99 14 24.91 14 27.28V28.71C14 31.08 12.36 33 10 33Z" stroke="#6B3012" stroke-width="2" stroke-miterlimit="10"/>
<path d="M1 46.0001C1.57 42.7901 2.21997 39.5501 2.21997 39.5501C2.69997 36.7801 4.79 35.6201 6.5 35.6201H7.53998C9.50998 35.6201 10.54 37.4901 11.25 38.5401C11.96 39.5901 12.96 41.0201 12.96 41.0201L17.3 41.6901C19.8 42.2201 19.5 45.9401 16.95 46.0001C16.92 46.0001 10.65 46.0001 10.65 46.0001L7.22998 42.7601" stroke="#6B3012" stroke-width="2" stroke-miterlimit="10" stroke-linecap="round" stroke-linejoin="round"/>
<path d="M9 46H42" stroke="#6B3012" stroke-width="2" stroke-miterlimit="10" stroke-linecap="round" stroke-linejoin="round"/>
<path d="M22.3799 43H31.4099L36.9999 33H20.5899L17.3999 38.7" stroke="#6B3012" stroke-width="2" stroke-miterlimit="10" stroke-linecap="round" stroke-linejoin="round"/>
<path d="M14 14C14 6.82 21.16 1 30 1C38.84 1 46 6.82 46 14C46 21.18 38.84 27 30 27C28.19 27 26.45 26.74 24.83 26.29L18.4 29.82L18.85 23.3C15.86 20.95 14 17.65 14 14Z" stroke="#F8AA2B" stroke-width="2" stroke-miterlimit="10" stroke-linecap="round" stroke-linejoin="round"/>
<path d="M27.5 20H32.5" stroke="#F8AA2B" stroke-width="2" stroke-miterlimit="10" stroke-linecap="round" stroke-linejoin="round"/>
<path d="M30 20V12H28" stroke="#F8AA2B" stroke-width="2" stroke-miterlimit="10" stroke-linecap="round" stroke-linejoin="round"/>
<path d="M30 7.5V8.5" stroke="#F8AA2B" stroke-width="2" stroke-miterlimit="10" stroke-linecap="round" stroke-linejoin="round"/>
</svg>

<svg width="47" height="47" fill="none" xmlns="http://www.w3.org/2000/svg"><path d="M10 33c-2.36 0-4-1.92-4-4.29v-1.43c0-2.37 1.64-4.29 4-4.29 2.36 0 4 1.92 4 4.29v1.43c0 2.37-1.64 4.29-4 4.29Z" stroke="#6B3012" stroke-width="2" stroke-miterlimit="10"/><path d="M1 46c.57-3.21 1.22-6.45 1.22-6.45.48-2.77 2.57-3.93 4.28-3.93h1.04c1.97 0 3 1.87 3.71 2.92.71 1.05 1.71 2.48 1.71 2.48l4.34.67c2.5.53 2.2 4.25-.35 4.31h-6.3l-3.42-3.24M9 46h33M22.38 43h9.03L37 33H20.59l-3.19 5.7" stroke="#6B3012" stroke-width="2" stroke-miterlimit="10" stroke-linecap="round" stroke-linejoin="round"/><path d="M14 14c0-7.18 7.16-13 16-13s16 5.82 16 13-7.16 13-16 13c-1.81 0-3.55-.26-5.17-.71l-6.43 3.53.45-6.52C15.86 20.95 14 17.65 14 14ZM27.5 20h5" stroke="#F8AA2B" stroke-width="2" stroke-miterlimit="10" stroke-linecap="round" stroke-linejoin="round"/><path d="M30 20v-8h-2M30 7.5v1" stroke="#F8AA2B" stroke-width="2" stroke-miterlimit="10" stroke-linecap="round" stroke-linejoin="round"/></svg>
